images/50699035.svg

<?xml version="1.0" encoding="UTF-8"?>
<svg xmlns="http://www.w3.org/2000/svg" xmlns:xlink="http://www.w3.org/1999/xlink" width="300pt" height="300pt" viewBox="0 0 300 300" version="1.1">
<defs>
<g>
<symbol overflow="visible" id="glyph0-0">
<path style="stroke:none;" d="M 0.453125 1.59375 L 0.453125 -6.34375 L 4.953125 -6.34375 L 4.953125 1.59375 Z M 0.953125 1.09375 L 4.453125 1.09375 L 4.453125 -5.84375 L 0.953125 -5.84375 Z M 0.953125 1.09375 "/>
</symbol>
<symbol overflow="visible" id="glyph0-1">
<path style="stroke:none;" d="M 3.546875 -5.953125 C 2.898438 -5.953125 2.382812 -5.710938 2 -5.234375 C 1.625 -4.753906 1.4375 -4.101562 1.4375 -3.28125 C 1.4375 -2.445312 1.625 -1.789062 2 -1.3125 C 2.382812 -0.832031 2.898438 -0.59375 3.546875 -0.59375 C 4.191406 -0.59375 4.703125 -0.832031 5.078125 -1.3125 C 5.453125 -1.789062 5.640625 -2.445312 5.640625 -3.28125 C 5.640625 -4.101562 5.453125 -4.753906 5.078125 -5.234375 C 4.703125 -5.710938 4.191406 -5.953125 3.546875 -5.953125 Z M 3.546875 -6.6875 C 4.460938 -6.6875 5.195312 -6.375 5.75 -5.75 C 6.300781 -5.132812 6.578125 -4.3125 6.578125 -3.28125 C 6.578125 -2.238281 6.300781 -1.410156 5.75 -0.796875 C 5.195312 -0.179688 4.460938 0.125 3.546875 0.125 C 2.617188 0.125 1.878906 -0.179688 1.328125 -0.796875 C 0.773438 -1.410156 0.5 -2.238281 0.5 -3.28125 C 0.5 -4.3125 0.773438 -5.132812 1.328125 -5.75 C 1.878906 -6.375 2.617188 -6.6875 3.546875 -6.6875 Z M 3.546875 -6.6875 "/>
</symbol>
<symbol overflow="visible" id="glyph0-2">
<path style="stroke:none;" d="M 0.890625 -6.5625 L 2.078125 -6.5625 L 4.984375 -1.078125 L 4.984375 -6.5625 L 5.84375 -6.5625 L 5.84375 0 L 4.65625 0 L 1.75 -5.484375 L 1.75 0 L 0.890625 0 Z M 0.890625 -6.5625 "/>
</symbol>
<symbol overflow="visible" id="glyph0-3">
<path style="stroke:none;" d="M 0.890625 -6.5625 L 1.765625 -6.5625 L 1.765625 -3.875 L 5 -3.875 L 5 -6.5625 L 5.890625 -6.5625 L 5.890625 0 L 5 0 L 5 -3.125 L 1.765625 -3.125 L 1.765625 0 L 0.890625 0 Z M 0.890625 -6.5625 "/>
</symbol>
</g>
</defs>
<g id="surface27749">
<rect x="0" y="0" width="300" height="300" style="fill:rgb(100%,100%,100%);fill-opacity:1;stroke:none;"/>
<path style="fill:none;stroke-width:1.2;stroke-linecap:butt;stroke-linejoin:miter;stroke:rgb(100%,0%,0%);stroke-opacity:1;stroke-miterlimit:10;" d="M 252.558594 202.359375 L 241.105469 201.933594 "/>
<path style="fill:none;stroke-width:1.2;stroke-linecap:butt;stroke-linejoin:miter;stroke:rgb(0%,0%,0%);stroke-opacity:1;stroke-miterlimit:10;" d="M 241.105469 201.933594 L 229.652344 201.503906 "/>
<path style="fill:none;stroke-width:1.2;stroke-linecap:butt;stroke-linejoin:miter;stroke:rgb(0%,0%,0%);stroke-opacity:1;stroke-miterlimit:10;" d="M 264.75 182.949219 L 258.652344 192.65625 "/>
<path style="fill:none;stroke-width:1.2;stroke-linecap:butt;stroke-linejoin:miter;stroke:rgb(100%,0%,0%);stroke-opacity:1;stroke-miterlimit:10;" d="M 258.652344 192.65625 L 252.558594 202.359375 "/>
<path style=" stroke:none;fill-rule:nonzero;fill:rgb(100%,100%,100%);fill-opacity:1;" d="M 248.558594 196.859375 L 256.558594 196.859375 L 256.558594 207.859375 L 248.558594 207.859375 Z M 248.558594 196.859375 "/>
<g style="fill:rgb(100%,0%,0%);fill-opacity:1;">
  <use xlink:href="#glyph0-1" x="248.558594" y="205.522461"/>
</g>
<path style="fill:none;stroke-width:1.2;stroke-linecap:butt;stroke-linejoin:miter;stroke:rgb(0%,0%,0%);stroke-opacity:1;stroke-miterlimit:10;" d="M 229.652344 201.503906 L 218.9375 181.242188 "/>
<path style="fill:none;stroke-width:1.2;stroke-linecap:butt;stroke-linejoin:miter;stroke:rgb(0%,0%,0%);stroke-opacity:1;stroke-miterlimit:10;" d="M 218.9375 181.242188 L 231.132812 161.832031 "/>
<path style="fill:none;stroke-width:1.2;stroke-linecap:butt;stroke-linejoin:miter;stroke:rgb(0%,0%,0%);stroke-opacity:1;stroke-miterlimit:10;" d="M 231.132812 161.832031 L 254.039062 162.6875 "/>
<path style="fill:none;stroke-width:1.2;stroke-linecap:butt;stroke-linejoin:miter;stroke:rgb(0%,0%,0%);stroke-opacity:1;stroke-miterlimit:10;" d="M 231.132812 161.832031 L 208.441406 158.585938 "/>
<path style="fill:none;stroke-width:1.2;stroke-linecap:butt;stroke-linejoin:miter;stroke:rgb(0%,0%,0%);stroke-opacity:1;stroke-miterlimit:10;" d="M 241.230469 141.253906 L 231.132812 161.832031 "/>
<path style="fill:none;stroke-width:1.2;stroke-linecap:butt;stroke-linejoin:miter;stroke:rgb(0%,0%,0%);stroke-opacity:1;stroke-miterlimit:10;" d="M 254.039062 162.6875 L 264.75 182.949219 "/>
<path style="fill:none;stroke-width:1.2;stroke-linecap:butt;stroke-linejoin:miter;stroke:rgb(0%,0%,0%);stroke-opacity:1;stroke-miterlimit:10;" d="M 208.441406 158.585938 L 204.515625 136.003906 "/>
<path style="fill:none;stroke-width:1.2;stroke-linecap:butt;stroke-linejoin:miter;stroke:rgb(0%,0%,0%);stroke-opacity:1;stroke-miterlimit:10;" d="M 202.734375 157.253906 L 199.59375 139.1875 "/>
<path style="fill:none;stroke-width:1.2;stroke-linecap:butt;stroke-linejoin:miter;stroke:rgb(0%,0%,0%);stroke-opacity:1;stroke-miterlimit:10;" d="M 190.847656 173.277344 L 208.441406 158.585938 "/>
<path style="fill:none;stroke-width:1.2;stroke-linecap:butt;stroke-linejoin:miter;stroke:rgb(0%,0%,0%);stroke-opacity:1;stroke-miterlimit:10;" d="M 204.515625 136.003906 L 214.648438 130.648438 "/>
<path style="fill:none;stroke-width:1.2;stroke-linecap:butt;stroke-linejoin:miter;stroke:rgb(0%,0%,100%);stroke-opacity:1;stroke-miterlimit:10;" d="M 214.648438 130.648438 L 224.78125 125.292969 "/>
<path style="fill:none;stroke-width:1.2;stroke-linecap:butt;stroke-linejoin:miter;stroke:rgb(0%,0%,0%);stroke-opacity:1;stroke-miterlimit:10;" d="M 204.515625 136.003906 L 182.996094 128.113281 "/>
<path style="fill:none;stroke-width:1.2;stroke-linecap:butt;stroke-linejoin:miter;stroke:rgb(0%,0%,100%);stroke-opacity:1;stroke-miterlimit:10;" d="M 224.78125 125.292969 L 233.003906 133.273438 "/>
<path style="fill:none;stroke-width:1.2;stroke-linecap:butt;stroke-linejoin:miter;stroke:rgb(0%,0%,0%);stroke-opacity:1;stroke-miterlimit:10;" d="M 233.003906 133.273438 L 241.230469 141.253906 "/>
<path style=" stroke:none;fill-rule:nonzero;fill:rgb(100%,100%,100%);fill-opacity:1;" d="M 217.78125 119.792969 L 231.78125 119.792969 L 231.78125 130.792969 L 217.78125 130.792969 Z M 217.78125 119.792969 "/>
<g style="fill:rgb(0%,0%,100%);fill-opacity:1;">
  <use xlink:href="#glyph0-2" x="217.78125" y="128.456055"/>
  <use xlink:href="#glyph0-3" x="224.758789" y="128.456055"/>
</g>
<path style="fill:none;stroke-width:1.2;stroke-linecap:butt;stroke-linejoin:miter;stroke:rgb(0%,0%,0%);stroke-opacity:1;stroke-miterlimit:10;" d="M 241.691406 143.910156 L 252.984375 141.949219 "/>
<path style="fill:none;stroke-width:1.2;stroke-linecap:butt;stroke-linejoin:miter;stroke:rgb(100%,0%,0%);stroke-opacity:1;stroke-miterlimit:10;" d="M 252.984375 141.949219 L 264.273438 139.984375 "/>
<path style="fill:none;stroke-width:1.2;stroke-linecap:butt;stroke-linejoin:miter;stroke:rgb(0%,0%,0%);stroke-opacity:1;stroke-miterlimit:10;" d="M 240.769531 138.597656 L 252.058594 136.636719 "/>
<path style="fill:none;stroke-width:1.2;stroke-linecap:butt;stroke-linejoin:miter;stroke:rgb(100%,0%,0%);stroke-opacity:1;stroke-miterlimit:10;" d="M 252.058594 136.636719 L 263.351562 134.671875 "/>
<path style=" stroke:none;fill-rule:nonzero;fill:rgb(100%,100%,100%);fill-opacity:1;" d="M 259.8125 131.828125 L 267.8125 131.828125 L 267.8125 142.828125 L 259.8125 142.828125 Z M 259.8125 131.828125 "/>
<g style="fill:rgb(100%,0%,0%);fill-opacity:1;">
  <use xlink:href="#glyph0-1" x="259.8125" y="140.491211"/>
</g>
<path style="fill:none;stroke-width:1.2;stroke-linecap:butt;stroke-linejoin:miter;stroke:rgb(0%,0%,0%);stroke-opacity:1;stroke-miterlimit:10;" d="M 182.996094 128.113281 L 165.402344 142.804688 "/>
<path style="fill:none;stroke-width:1.2;stroke-linecap:butt;stroke-linejoin:miter;stroke:rgb(0%,0%,0%);stroke-opacity:1;stroke-miterlimit:10;" d="M 184.691406 133.722656 L 170.617188 145.476562 "/>
<path style="fill:none;stroke-width:1.2;stroke-linecap:butt;stroke-linejoin:miter;stroke:rgb(0%,0%,0%);stroke-opacity:1;stroke-miterlimit:10;" d="M 165.402344 142.804688 L 169.328125 165.386719 "/>
<path style="fill:none;stroke-width:1.2;stroke-linecap:butt;stroke-linejoin:miter;stroke:rgb(0%,0%,0%);stroke-opacity:1;stroke-miterlimit:10;" d="M 165.402344 142.804688 L 143.882812 134.914062 "/>
<path style="fill:none;stroke-width:1.2;stroke-linecap:butt;stroke-linejoin:miter;stroke:rgb(0%,0%,0%);stroke-opacity:1;stroke-miterlimit:10;" d="M 169.328125 165.386719 L 190.847656 173.277344 "/>
<path style="fill:none;stroke-width:1.2;stroke-linecap:butt;stroke-linejoin:miter;stroke:rgb(0%,0%,0%);stroke-opacity:1;stroke-miterlimit:10;" d="M 173.335938 161.113281 L 190.550781 167.425781 "/>
<path style="fill:none;stroke-width:1.2;stroke-linecap:butt;stroke-linejoin:miter;stroke:rgb(0%,0%,0%);stroke-opacity:1;stroke-miterlimit:10;" d="M 143.882812 134.914062 L 126.289062 149.605469 "/>
<path style="fill:none;stroke-width:1.2;stroke-linecap:butt;stroke-linejoin:miter;stroke:rgb(0%,0%,0%);stroke-opacity:1;stroke-miterlimit:10;" d="M 138.664062 132.242188 L 124.589844 143.996094 "/>
<path style="fill:none;stroke-width:1.2;stroke-linecap:butt;stroke-linejoin:miter;stroke:rgb(0%,0%,0%);stroke-opacity:1;stroke-miterlimit:10;" d="M 139.957031 112.332031 L 143.882812 134.914062 "/>
<path style="fill:none;stroke-width:1.2;stroke-linecap:butt;stroke-linejoin:miter;stroke:rgb(0%,0%,0%);stroke-opacity:1;stroke-miterlimit:10;" d="M 126.289062 149.605469 L 125.859375 161.058594 "/>
<path style="fill:none;stroke-width:1.2;stroke-linecap:butt;stroke-linejoin:miter;stroke:rgb(100%,0%,0%);stroke-opacity:1;stroke-miterlimit:10;" d="M 125.859375 161.058594 L 125.433594 172.511719 "/>
<path style="fill:none;stroke-width:1.2;stroke-linecap:butt;stroke-linejoin:miter;stroke:rgb(0%,0%,0%);stroke-opacity:1;stroke-miterlimit:10;" d="M 104.769531 141.714844 L 126.289062 149.605469 "/>
<path style="fill:none;stroke-width:1.2;stroke-linecap:butt;stroke-linejoin:miter;stroke:rgb(100%,0%,0%);stroke-opacity:1;stroke-miterlimit:10;" d="M 125.433594 172.511719 L 114.410156 175.644531 "/>
<path style="fill:none;stroke-width:1.2;stroke-linecap:butt;stroke-linejoin:miter;stroke:rgb(0%,0%,100%);stroke-opacity:1;stroke-miterlimit:10;" d="M 114.410156 175.644531 L 103.382812 178.773438 "/>
<path style=" stroke:none;fill-rule:nonzero;fill:rgb(100%,100%,100%);fill-opacity:1;" d="M 121.433594 167.011719 L 129.433594 167.011719 L 129.433594 178.011719 L 121.433594 178.011719 Z M 121.433594 167.011719 "/>
<g style="fill:rgb(100%,0%,0%);fill-opacity:1;">
  <use xlink:href="#glyph0-1" x="121.433594" y="175.674805"/>
</g>
<path style="fill:none;stroke-width:1.2;stroke-linecap:butt;stroke-linejoin:miter;stroke:rgb(0%,0%,100%);stroke-opacity:1;stroke-miterlimit:10;" d="M 103.382812 178.773438 L 97 169.257812 "/>
<path style="fill:none;stroke-width:1.2;stroke-linecap:butt;stroke-linejoin:miter;stroke:rgb(0%,0%,0%);stroke-opacity:1;stroke-miterlimit:10;" d="M 97 169.257812 L 90.613281 159.742188 "/>
<path style="fill:none;stroke-width:1.2;stroke-linecap:butt;stroke-linejoin:miter;stroke:rgb(0%,0%,100%);stroke-opacity:1;stroke-miterlimit:10;" d="M 106.585938 173.867188 L 101.476562 166.253906 "/>
<path style="fill:none;stroke-width:1.2;stroke-linecap:butt;stroke-linejoin:miter;stroke:rgb(0%,0%,0%);stroke-opacity:1;stroke-miterlimit:10;" d="M 101.476562 166.253906 L 96.367188 158.640625 "/>
<path style=" stroke:none;fill-rule:nonzero;fill:rgb(100%,100%,100%);fill-opacity:1;" d="M 100.382812 173.273438 L 107.382812 173.273438 L 107.382812 184.273438 L 100.382812 184.273438 Z M 100.382812 173.273438 "/>
<g style="fill:rgb(0%,0%,100%);fill-opacity:1;">
  <use xlink:href="#glyph0-2" x="100.382812" y="181.936523"/>
</g>
<path style="fill:none;stroke-width:1.2;stroke-linecap:butt;stroke-linejoin:miter;stroke:rgb(0%,0%,0%);stroke-opacity:1;stroke-miterlimit:10;" d="M 90.613281 159.742188 L 79.160156 159.3125 "/>
<path style="fill:none;stroke-width:1.2;stroke-linecap:butt;stroke-linejoin:miter;stroke:rgb(0%,0%,100%);stroke-opacity:1;stroke-miterlimit:10;" d="M 79.160156 159.3125 L 67.707031 158.886719 "/>
<path style="fill:none;stroke-width:1.2;stroke-linecap:butt;stroke-linejoin:miter;stroke:rgb(0%,0%,0%);stroke-opacity:1;stroke-miterlimit:10;" d="M 90.613281 159.742188 L 104.769531 141.714844 "/>
<path style="fill:none;stroke-width:1.2;stroke-linecap:butt;stroke-linejoin:miter;stroke:rgb(0%,0%,100%);stroke-opacity:1;stroke-miterlimit:10;" d="M 67.707031 158.886719 L 61.609375 168.589844 "/>
<path style="fill:none;stroke-width:1.2;stroke-linecap:butt;stroke-linejoin:miter;stroke:rgb(0%,0%,0%);stroke-opacity:1;stroke-miterlimit:10;" d="M 61.609375 168.589844 L 55.515625 178.296875 "/>
<path style=" stroke:none;fill-rule:nonzero;fill:rgb(100%,100%,100%);fill-opacity:1;" d="M 60.707031 153.386719 L 74.707031 153.386719 L 74.707031 164.386719 L 60.707031 164.386719 Z M 60.707031 153.386719 "/>
<g style="fill:rgb(0%,0%,100%);fill-opacity:1;">
  <use xlink:href="#glyph0-2" x="60.707031" y="162.049805"/>
  <use xlink:href="#glyph0-3" x="67.68457" y="162.049805"/>
</g>
<path style="fill:none;stroke-width:1.2;stroke-linecap:butt;stroke-linejoin:miter;stroke:rgb(0%,0%,0%);stroke-opacity:1;stroke-miterlimit:10;" d="M 55.515625 178.296875 L 54.660156 201.203125 "/>
<path style="fill:none;stroke-width:1.2;stroke-linecap:butt;stroke-linejoin:miter;stroke:rgb(0%,0%,0%);stroke-opacity:1;stroke-miterlimit:10;" d="M 35.25 189.007812 L 55.515625 178.296875 "/>
<path style="fill:none;stroke-width:1.2;stroke-linecap:butt;stroke-linejoin:miter;stroke:rgb(0%,0%,0%);stroke-opacity:1;stroke-miterlimit:10;" d="M 54.660156 201.203125 L 35.25 189.007812 "/>
<path style="fill:none;stroke-width:1.2;stroke-linecap:butt;stroke-linejoin:miter;stroke:rgb(0%,0%,0%);stroke-opacity:1;stroke-miterlimit:10;" d="M 104.769531 141.714844 L 100.839844 119.132812 "/>
<path style="fill:none;stroke-width:1.2;stroke-linecap:butt;stroke-linejoin:miter;stroke:rgb(0%,0%,0%);stroke-opacity:1;stroke-miterlimit:10;" d="M 109.6875 138.53125 L 106.546875 120.464844 "/>
<path style="fill:none;stroke-width:1.2;stroke-linecap:butt;stroke-linejoin:miter;stroke:rgb(0%,0%,0%);stroke-opacity:1;stroke-miterlimit:10;" d="M 100.839844 119.132812 L 118.4375 104.441406 "/>
<path style="fill:none;stroke-width:1.2;stroke-linecap:butt;stroke-linejoin:miter;stroke:rgb(0%,0%,0%);stroke-opacity:1;stroke-miterlimit:10;" d="M 118.4375 104.441406 L 139.957031 112.332031 "/>
<path style="fill:none;stroke-width:1.2;stroke-linecap:butt;stroke-linejoin:miter;stroke:rgb(0%,0%,0%);stroke-opacity:1;stroke-miterlimit:10;" d="M 118.730469 110.292969 L 135.945312 116.605469 "/>
<path style="fill:none;stroke-width:1.2;stroke-linecap:butt;stroke-linejoin:miter;stroke:rgb(0%,0%,0%);stroke-opacity:1;stroke-miterlimit:10;" d="M 139.957031 112.332031 L 157.550781 97.640625 "/>
</g>
</svg>

<svg xmlns="http://www.w3.org/2000/svg" xmlns:xlink="http://www.w3.org/1999/xlink" width="300pt" height="300pt" viewBox="0 0 300 300"><defs><symbol overflow="visible"><path d="M.453 1.594v-7.938h4.5v7.938zm.5-.5h3.5v-6.938h-3.5zm0 0"/></symbol><symbol overflow="visible" id="a"><path d="M3.547-5.953c-.65 0-1.164.242-1.547.72-.375.48-.563 1.13-.563 1.952 0 .835.188 1.49.563 1.967.383.48.898.72 1.547.72.644 0 1.156-.24 1.53-.72.376-.476.564-1.132.564-1.968 0-.822-.187-1.474-.562-1.954-.375-.477-.887-.72-1.53-.72zm0-.734c.914 0 1.648.312 2.203.937.55.617.828 1.438.828 2.47 0 1.042-.277 1.87-.828 2.483-.555.617-1.29.922-2.203.922-.93 0-1.668-.305-2.22-.922C.774-1.41.5-2.237.5-3.28c0-1.033.273-1.853.828-2.47.55-.625 1.29-.938 2.22-.938zm0 0"/></symbol><symbol overflow="visible" id="b"><path d="M.89-6.563H2.08l2.906 5.485v-5.484h.86V0H4.656L1.75-5.484V0H.89zm0 0"/></symbol><symbol overflow="visible" id="c"><path d="M.89-6.563h.876v2.688H5v-2.688h.89V0H5v-3.125H1.766V0H.89zm0 0"/></symbol></defs><g><path fill="#fff" d="M0 0h300v300H0z"/><path d="M252.56 202.36l-11.455-.426" stroke-width="1.2" stroke="#f00" stroke-miterlimit="10" fill="none"/><path d="M241.105 201.934l-11.453-.43M264.75 182.95l-6.098 9.706" stroke-width="1.2" stroke="#000" stroke-miterlimit="10" fill="none"/><path d="M258.652 192.656l-6.093 9.703" stroke-width="1.2" stroke="#f00" stroke-miterlimit="10" fill="none"/><path d="M248.56 196.86h8v11h-8zm0 0" fill="#fff"/><use xlink:href="#a" x="248.559" y="205.522" fill="#f00"/><path d="M229.652 201.504l-10.714-20.262M218.938 181.242l12.195-19.41M231.133 161.832l22.906.856M231.133 161.832l-22.692-3.246M241.23 141.254l-10.097 20.578M254.04 162.688l10.71 20.26M208.44 158.586l-3.924-22.582M202.734 157.254l-3.14-18.066M190.848 173.277l17.593-14.69M204.516 136.004l10.132-5.356" stroke-width="1.2" stroke="#000" stroke-miterlimit="10" fill="none"/><path d="M214.648 130.648l10.133-5.355" stroke-width="1.2" stroke="#00f" stroke-miterlimit="10" fill="none"/><path d="M204.516 136.004l-21.52-7.89" stroke-width="1.2" stroke="#000" stroke-miterlimit="10" fill="none"/><path d="M224.78 125.293l8.224 7.98" stroke-width="1.2" stroke="#00f" stroke-miterlimit="10" fill="none"/><path d="M233.004 133.273l8.226 7.98" stroke-width="1.2" stroke="#000" stroke-miterlimit="10" fill="none"/><path d="M217.78 119.793h14v11h-14zm0 0" fill="#fff"/><g fill="#00f"><use xlink:href="#b" x="217.781" y="128.456"/><use xlink:href="#c" x="224.759" y="128.456"/></g><path d="M241.69 143.91l11.294-1.96" stroke-width="1.2" stroke="#000" stroke-miterlimit="10" fill="none"/><path d="M252.984 141.95l11.29-1.966" stroke-width="1.2" stroke="#f00" stroke-miterlimit="10" fill="none"/><path d="M240.77 138.598l11.29-1.96" stroke-width="1.2" stroke="#000" stroke-miterlimit="10" fill="none"/><path d="M252.06 136.637l11.292-1.965" stroke-width="1.2" stroke="#f00" stroke-miterlimit="10" fill="none"/><path d="M259.813 131.828h8v11h-8zm0 0" fill="#fff"/><use xlink:href="#a" x="259.813" y="140.491" fill="#f00"/><path d="M182.996 128.113l-17.594 14.692M184.69 133.723l-14.073 11.754M165.402 142.805l3.926 22.582M165.402 142.805l-21.52-7.89M169.328 165.387l21.52 7.89M173.336 161.113l17.215 6.313M143.883 134.914l-17.594 14.69M138.664 132.242l-14.074 11.754M139.957 112.332l3.926 22.582M126.29 149.605l-.43 11.454" stroke-width="1.2" stroke="#000" stroke-miterlimit="10" fill="none"/><path d="M125.86 161.06l-.426 11.452" stroke-width="1.2" stroke="#f00" stroke-miterlimit="10" fill="none"/><path d="M104.77 141.715l21.52 7.89" stroke-width="1.2" stroke="#000" stroke-miterlimit="10" fill="none"/><path d="M125.434 172.512l-11.024 3.133" stroke-width="1.2" stroke="#f00" stroke-miterlimit="10" fill="none"/><path d="M114.41 175.645l-11.027 3.128" stroke-width="1.2" stroke="#00f" stroke-miterlimit="10" fill="none"/><path d="M121.434 167.012h8v11h-8zm0 0" fill="#fff"/><use xlink:href="#a" x="121.434" y="175.675" fill="#f00"/><path d="M103.383 178.773L97 169.258" stroke-width="1.2" stroke="#00f" stroke-miterlimit="10" fill="none"/><path d="M97 169.258l-6.387-9.516" stroke-width="1.2" stroke="#000" stroke-miterlimit="10" fill="none"/><path d="M106.586 173.867l-5.11-7.613" stroke-width="1.2" stroke="#00f" stroke-miterlimit="10" fill="none"/><path d="M101.477 166.254l-5.11-7.613" stroke-width="1.2" stroke="#000" stroke-miterlimit="10" fill="none"/><path d="M100.383 173.273h7v11h-7zm0 0" fill="#fff"/><use xlink:href="#b" x="100.383" y="181.937" fill="#00f"/><path d="M90.613 159.742l-11.453-.43" stroke-width="1.2" stroke="#000" stroke-miterlimit="10" fill="none"/><path d="M79.16 159.313l-11.453-.426" stroke-width="1.2" stroke="#00f" stroke-miterlimit="10" fill="none"/><path d="M90.613 159.742l14.157-18.027" stroke-width="1.2" stroke="#000" stroke-miterlimit="10" fill="none"/><path d="M67.707 158.887l-6.098 9.703" stroke-width="1.2" stroke="#00f" stroke-miterlimit="10" fill="none"/><path d="M61.61 168.59l-6.094 9.707" stroke-width="1.2" stroke="#000" stroke-miterlimit="10" fill="none"/><path d="M60.707 153.387h14v11h-14zm0 0" fill="#fff"/><g fill="#00f"><use xlink:href="#b" x="60.707" y="162.05"/><use xlink:href="#c" x="67.685" y="162.05"/></g><path d="M55.516 178.297l-.856 22.906M35.25 189.008l20.266-10.71M54.66 201.203l-19.41-12.195M104.77 141.715l-3.93-22.582M109.688 138.53l-3.14-18.065M100.84 119.133l17.597-14.692M118.438 104.44l21.52 7.892M118.73 110.293l17.215 6.312M139.957 112.332l17.594-14.69" stroke-width="1.2" stroke="#000" stroke-miterlimit="10" fill="none"/></g></svg>
